X: 1
T: Pullen Bracken
T: Tha mi sgith
O: Trad
R: march, air
Z: 1997 by John Chambers <jc:trillian.mit.edu>
M: C|
L: 1/4
K: Em
|: "Em"EE     e2 | "G"dB d2 | "Bm"B>A "A"FE | "D"DE FD | "Em"EE     e2 | "G"dB d2 | "Bm"B>A FB | "Em"E2 E2 :|
|: "Em"B>A "A"FE | "D"DE FD | "Em"B>A "A"FE | "D"F2 A2 | "Em"B>A "A"FE | "D"DE FD | "Bm"B>A FB | "Em"E2 E2 :|
